assets/icons/icon_star_select.svg

<svg width="48" height="48" viewBox="0 0 48 48" fill="none" xmlns="http://www.w3.org/2000/svg">
<g clip-path="url(#clip0_2188_3141)">
<path d="M41.3099 16.6298L33.2699 13.8298C32.8999 13.6998 32.5699 13.4598 32.3299 13.1498L27.1799 6.36978C26.7799 5.83978 26.2799 5.44978 25.7299 5.17978C25.1799 4.91978 24.5899 4.77979 23.9899 4.77979C23.3899 4.77979 22.7999 4.90978 22.2499 5.17978C21.6999 5.43978 21.1999 5.83978 20.7999 6.36978L15.6499 13.1498C15.4099 13.4598 15.0899 13.6998 14.7099 13.8298L6.66994 16.6298C4.16994 17.4998 3.18994 20.5198 4.69994 22.6898L9.55994 29.6798C9.77994 29.9998 9.90994 30.3898 9.91994 30.7798L10.0999 39.2898C10.0999 39.5398 10.1399 39.7898 10.1899 40.0298C10.1899 40.0698 10.2099 40.1098 10.2099 40.1498C10.2599 40.3698 10.3399 40.5898 10.4299 40.7998C10.4499 40.8398 10.4699 40.8798 10.4799 40.9198C10.5799 41.1298 10.6899 41.3298 10.8199 41.5098C10.8199 41.5198 10.8399 41.5398 10.8499 41.5498C10.9799 41.7298 11.1199 41.8898 11.2799 42.0398C11.2999 42.0598 11.3299 42.0898 11.3499 42.1098C11.5099 42.2598 11.6799 42.3998 11.8599 42.5198C11.8999 42.5398 11.9299 42.5698 11.9699 42.5898C12.1599 42.7098 12.3499 42.8098 12.5599 42.8998C12.5899 42.9098 12.6099 42.9198 12.6399 42.9298C12.8399 43.0098 13.0499 43.0698 13.2599 43.1198C13.2899 43.1198 13.3099 43.1298 13.3399 43.1398C13.5599 43.1798 13.7899 43.1998 14.0199 43.2098C14.0399 43.2098 14.0699 43.2098 14.0899 43.2098C14.1199 43.2098 14.1499 43.2098 14.1799 43.2098C14.2999 43.2098 14.4199 43.1998 14.5499 43.1798C14.6099 43.1798 14.6599 43.1698 14.7199 43.1598C14.8999 43.1298 15.0799 43.0898 15.2599 43.0398L23.4099 40.5798C23.5999 40.5198 23.7899 40.4898 23.9899 40.4898C24.1899 40.4898 24.3799 40.5198 24.5699 40.5798L32.7199 43.0398C32.8999 43.0898 33.0799 43.1298 33.2599 43.1598C33.3199 43.1598 33.3699 43.1698 33.4299 43.1798C33.5499 43.1898 33.6799 43.1998 33.7999 43.2098C33.8299 43.2098 33.8599 43.2098 33.8899 43.2098C33.9099 43.2098 33.9399 43.2098 33.9599 43.2098C34.1899 43.2098 34.4199 43.1898 34.6399 43.1398C34.6699 43.1398 34.6899 43.1298 34.7199 43.1198C34.9299 43.0698 35.1399 43.0098 35.3399 42.9298C35.3699 42.9298 35.3899 42.9098 35.4199 42.8998C35.6299 42.8098 35.8199 42.7098 36.0099 42.5898C36.0499 42.5698 36.0799 42.5398 36.1199 42.5198C36.2999 42.3998 36.4799 42.2598 36.6399 42.1098C36.6599 42.0898 36.6899 42.0598 36.7099 42.0398C36.8699 41.8898 37.0099 41.7198 37.1399 41.5398C37.1399 41.5298 37.1599 41.5198 37.1699 41.4998C37.2999 41.3198 37.4099 41.1198 37.5099 40.9098C37.5299 40.8698 37.5499 40.8298 37.5599 40.7898C37.6499 40.5798 37.7199 40.3698 37.7799 40.1398C37.7799 40.0998 37.7999 40.0598 37.7999 40.0198C37.8499 39.7798 37.8799 39.5398 37.8899 39.2798L38.0699 30.7698C38.0699 30.3798 38.1999 29.9898 38.4299 29.6698L43.2899 22.6798C44.7999 20.5098 43.8199 17.4898 41.3199 16.6198L41.3099 16.6298Z" fill="black"/>
</g>
<defs>
<clipPath id="clip0_2188_3141">
<rect width="48" height="48" fill="white"/>
</clipPath>
</defs>
</svg>

<?xml version="1.0" encoding="UTF-8"?>
<svg xmlns="http://www.w3.org/2000/svg" viewBox="0 0 48 48">
  <defs>
    <style>
      .cls-1 {
        fill: none;
        opacity: .2;
      }
    </style>
  </defs>
  <g id="guid">
    <g>
      <rect class="cls-1" x="0" width="48" height="48"/>
      <rect class="cls-1" x="4" y="4" width="40" height="40"/>
    </g>
  </g>
  <g id="Layer_2" data-name="Layer 2">
    <path d="M41.31,16.63l-8.04-2.8c-.37-.13-.7-.37-.94-.68l-5.15-6.78c-.4-.53-.9-.92-1.45-1.19-.55-.26-1.14-.4-1.74-.4s-1.19.13-1.74.4c-.55.26-1.05.66-1.45,1.19l-5.15,6.78c-.24.31-.56.55-.94.68l-8.04,2.8c-2.5.87-3.48,3.89-1.97,6.06l4.86,6.99c.22.32.35.71.36,1.1l.18,8.51c0,.25.04.5.09.74,0,.04.02.08.02.12.05.22.13.44.22.65.02.04.04.08.05.12.1.21.21.41.34.59,0,.01.02.03.03.04.13.18.27.34.43.49.02.02.05.05.07.07.16.15.33.29.51.41.04.02.07.05.11.07.19.12.38.22.59.31.03.01.05.02.08.03.2.08.41.14.62.19.03,0,.05.01.08.02.22.04.45.06.68.07.02,0,.05,0,.07,0,.03,0,.06,0,.09,0,.12,0,.24-.01.37-.03.06,0,.11-.01.17-.02.18-.03.36-.07.54-.12l8.15-2.46c.19-.06.38-.09.58-.09s.39.03.58.09l8.15,2.46c.18.05.36.09.54.12.06,0,.11.01.17.02.12.01.25.02.37.03.03,0,.06,0,.09,0,.02,0,.05,0,.07,0,.23,0,.46-.02.68-.07.03,0,.05-.01.08-.02.21-.05.42-.11.62-.19.03,0,.05-.02.08-.03.21-.09.4-.19.59-.31.04-.02.07-.05.11-.07.18-.12.36-.26.52-.41.02-.02.05-.05.07-.07.16-.15.3-.32.43-.5,0-.01.02-.02.03-.04.13-.18.24-.38.34-.59.02-.04.04-.08.05-.12.09-.21.16-.42.22-.65,0-.04.02-.08.02-.12.05-.24.08-.48.09-.74l.18-8.51c0-.39.13-.78.36-1.1l4.86-6.99c1.51-2.17.53-5.19-1.97-6.06Z"/>
  </g>
</svg>
